**kern	**kern	**dynam
*part1	*part1	*part1
*staff2	*staff1	*
*I"Piano	*	*
*clefF4	*clefG2	*
*k[]	*k[]	*
=1	=1	=1
4CC 4C	4c 4e 4cc	.
8CC 8C	8G 8e	.
=	=	=
*	*^	*
4.FF 4.C	(8dL	4.A	.
.	8c)	.	.
.	8dJ	.	.
=	=	=	=
4.CC 4.C	4.e	4.G	.
=	=	=	=
4.FF 4.C	(8dL	4.A	.
.	8c)	.	.
.	8dJ	.	.
=	=	=	=
4.CC 4.C	4.e	4.G	.
=	=	=	=
!	!LO:TX:a:i:t=poco rit	!	!
4FF 4C	(8dL	4A	p
.	8c)	.	.
8FF 8C	8dJ	8A	.
=	=	=	=
4EE 4BB	4e	4G#X	.
!	!LO:TX:a:B:t=a tempo	!	!
8CC 8C	8e	8Gn	f
=	=	=	=
4.GGG 4.GG	4.F 4.B 4.g	4e	.
.	.	8d	.
*	*v	*v	*
=	=	=
4CC 4C	4E 4G 4c	.
8r	8r	.
==	==	==
*-	*-	*-
!!!system-decoration: {(s1,s2)}
